material/.icons/material/caps-lock.svg

<svg xmlns="http://www.w3.org/2000/svg" viewBox="0 0 24 24"><path d="M9.96 13.71L12 8.29l2.03 5.43M11.14 6L6.43 18h1.93l.96-2.57h5.36l.96 2.57h1.93L12.86 6h-1.72M20 2H4c-1.11 0-2 .89-2 2v16a2 2 0 002 2h16c1.11 0 2-.89 2-2V4a2 2 0 00-2-2m0 18H4V4h16v16z"/></svg>

<?xml version="1.0" encoding="UTF-8"?><!DOCTYPE svg PUBLIC "-//W3C//DTD SVG 1.1//EN" "http://www.w3.org/Graphics/SVG/1.1/DTD/svg11.dtd"><svg xmlns="http://www.w3.org/2000/svg" xmlns:xlink="http://www.w3.org/1999/xlink" version="1.1" id="mdi-caps-lock" width="24" height="24" viewBox="0 0 24 24"><path d="M9.96,13.71L12,8.29L14.03,13.72M11.14,6L6.43,18H8.36L9.32,15.43H14.68L15.64,18H17.57L12.86,6H11.14M20,2H4C2.89,2 2,2.89 2,4V20C2,21.11 2.9,22 4,22H20C21.11,22 22,21.11 22,20V4C22,2.89 21.1,2 20,2M20,20H4V4H20V20Z" /></svg>
